X:1
T:Wear a Crown
T:Wear a Crown
T:A. E. Lind
T:Harriette Waters, 1905
T:Public Domain Courtesy of the Cyber Hymnal™
T:Public Domain Courtesy of the Cyber Hymnal™
C:A. E. Lind
Z:Public Domain
Z:Courtesy of the Cyber Hymnal™
%%score ( 1 2 ) ( 3 4 )
L:1/8
Q:1/4=110
M:4/4
K:F
V:1 treble 
V:2 treble 
V:3 bass 
V:4 bass 
V:1
 [CF]>[CG] | [FA]2 [Fc]2 [Fd]2 [Fc]2 | [FA]6 [EG]>[FA] | [GB]2 [GB]2 [Ed]2 [Ec]2 | %4
w: 1.~Bu- gle|calls are ring- ing|out, “For- ward”|is the bat- tle|
w: 2.~Sound the|charge a- gainst the|foe, Lay the|hosts of er- ror|
w: 3.~Fight the|fight of faith and|love, Look- ing|un- to Him a-|
 [Fc]6 [CF]>[CG] | [FA]2 [Fc]2 [Fd]2 [Fc]2 | [FA]6 [FA]>[FA] | [EG]2 [Gf]2 [Ge]3 [Fd] | [Ec]6 || %9
w: shout, See where|floats the con- quering|sign, On- ward|to the war di-|vine!|
w: low; In His|name, vic- tor- ious|King, Let the|song of tri- umph|ring!|
w: bove; Loy- al|sol- diers, do and|dare, Your com-|mand- er’s joy to|share.|
"^Refrain" C2 | [CF]>[CF] [CF]>[CG] [FA]2 [FA]2 | [Fc]>[Fd] [Fc]>[FB] [FA]4 | %12
w: And|when the bat- tle’s o- ver,|we shall wear a crown,|
w: |||
w: ~|~ ~ ~ ~ ~ ~|~ ~ ~ ~ ~|
 [GB]>[Ac] [GB]>[FA] [EG]4 | [FA]>[FB] [FA]>[CG] [CF]2 C2 |S [CF]>[CF] [CF]>[CG] [FA]2 [FA]2 | %15
w: We shall wear a crown,|we shall wear a crown! And|when the bat- tle’s o- ver,|
w: |||
w: ~ ~ ~ ~ ~|~ ~ ~ ~ ~ ~|~ ~ ~ ~ ~ ~|
 [Fc]>[Fd] [Fc]>[FB] [FA]2 [Fc]>[Fc] | [GB]3 [GB] [FA]2 [EG]2 | F6 F>G!fine! | (z2 A>)B x6 | %19
w: we shall wear a crown In the|new Je- ru- sa-|lem! Wear a|* crown,|
w: ||||
w: ~ ~ ~ ~ ~ ~ ~|~ ~ ~ ~|~ ~ ~|* wear~a~crown,|
 (z2 [Fc]2) x6 | [Fd]4 [Ff]2 [Fd]2 | [Fd]2 [Fc]4 C2!D.S.! |] %22
w: |wear a crown,|a- way o-|
w: |||
w: |~ ~ wear~a~crown||
V:2
 x2 | x8 | x8 | x8 | x8 | x8 | x8 | x8 | x6 || C2 | x8 | x8 | x8 | x6 C2 | x8 | x8 | x8 | F6 x2 | %18
 (A6 F>F F2) | (c6 F>F F2) | x8 | x6 C2 |] %22
V:3
 [F,A,]>[F,B,] | [F,C]2 [F,A,]2 [F,B,]2 [F,A,]2 | [F,C]6 [C,C]>[C,C] | %3
w: ~ ~|~ ~ ~ ~|~ ~ ~|
 [C,C]2 [C,C]2 [C,B,]2 [C,B,]2 | [F,A,]6 [F,A,]>[F,B,] | [F,C]2 [F,A,]2 [F,B,]2 [F,A,]2 | %6
w: ~ ~ ~ ~|~ ~ ~|~ ~ ~ ~|
 [F,C]6 [F,C]>[F,C] | [G,C]2 [G,=B,]2 [G,C]3 G, | [C,G,]6 || [F,A,]2 | %10
w: ~ ~ ~|~ ~ ~ ~|~|~|
 [F,A,]>[F,A,] [F,A,]>[F,B,] [F,C]2 [F,C]2 | [F,A,]>[F,B,] [F,A,]>[F,D] [F,C]4 | %12
w: ~ ~ ~ ~ ~ ~|~ ~ ~ ~ ~|
 [C,C]>[C,C] [C,C]>[C,C] [C,C]4 | [F,C]>[F,D] [F,C]>[F,B,] [F,A,]2 [F,A,]2 | %14
w: ~ ~ ~ ~ ~|~ ~ ~ ~ ~ ~|
 [F,A,]>[F,A,] [F,A,]>[F,B,] [F,C]2 [F,C]2 | [F,A,]>[F,B,] [F,A,]>[F,D] [F,C]2 [A,C]>[A,C] | %16
w: D.S.~when the bat- tle’s o- ver|We shall wear a crown In the|
 [B,D]3 [G,D] C2 [C,B,]2 | [F,A,]6 A,>B, | z2 F,>G, x6 | z2 [F,A,]2 x6 | B,4 [B,D]2 B,2 | %21
w: new Je- ru- sa-|lem Wear a|crown, Wear|a|crown, * *|
 [F,B,]2 [F,A,]4 [F,A,]2 |] %22
w: |
V:4
 x2 | x8 | x8 | x8 | x8 | x8 | x8 | x7 G, | x6 || x2 | x8 | x8 | x8 | x8 | x8 | x8 | x4 C2 x2 | %17
 x8 | (C6 F,>)F, F,2 | (A,6 F,>)F, F,2 | B,4 B,2 x2 | x8 |] %22

